X: 41999
T: Walsh's
R: polka
M: 2/4
K: Dmajor
|:f|a2 af/a/|ba fa|g2 Bc|ed c/B/A|
a2 af/a/|ba fa|g2 Bc|ed d:|
|:e|f>e fe|dc BA|g>f ga|ba f/g/a|
f>e fe|dc BA|g2 Bc|ed d:|

